;FLAVOR:Marlin
;TIME:1905
;Filament used: 3.4105m
;Layer height: 0.4
;MINX:97.2
;MINY:93.033
;MINZ:0.3
;MAXX:152.8
;MAXY:148.633
;MAXZ:39.9
;TARGET_MACHINE.NAME:Anycubic Vyper
;Generated with Cura_SteamEngine 5.8.1
M140 S60
M105
M190 S60
M104 S200
M105
M109 S200
M82 ;absolute extrusion mode
G21 ;metric values
G90 ;absolute positioning
M82 ;set extruder to absolute mode
M107 ;start with the fan off
G28 X0 Y0 ;move X/Y to min endstops
M300 S1318 P266
G28 Z0 ;move Z to min endstops
G0 Z0.2
G92 E0 ;zero the extruded length
G1 X40 E25 F400 ; Extrude 25mm of filament in a 4cm line. Reduce speed (F) if you have a nozzle smaller than 0.4mm!
G92 E0 ;zero the extruded length again
G1 E-1 F500 ; Retract a little
G1 X80 F4000 ; Quickly wipe away from the filament line
M117 ; Printing…
G5
G92 E0
G92 E0
G1 F1500 E-6.5
;LAYER_COUNT:100
;LAYER:0
M107
G0 F3600 X99.39 Y95.385 Z0.3
;TYPE:SKIRT
G1 F1500 E0
G1 F1800 X100.743 Y94.293 E0.08674
G1 X102.722 Y93.307 E0.19705
G1 X104.246 Y93.085 E0.27389
G1 X145.622 Y93.033 E2.33815
G1 X147.679 Y93.455 E2.44291
G1 X149.45 Y94.45 E2.54425
G1 X150.448 Y95.223 E2.60723
G1 X151.54 Y96.576 E2.69398
G1 X152.526 Y98.555 E2.80428
G1 X152.748 Y100.079 E2.88112
G1 X152.8 Y141.455 E4.94538
G1 X152.378 Y143.512 E5.05014
G1 X151.383 Y145.283 E5.15149
G1 X150.61 Y146.281 E5.21446
G1 X149.257 Y147.373 E5.30121
G1 X147.278 Y148.359 E5.41152
G1 X145.754 Y148.581 E5.48835
G1 X104.378 Y148.633 E7.55261
G1 X102.321 Y148.211 E7.65737
G1 X100.55 Y147.216 E7.75872
G1 X99.552 Y146.443 E7.8217
G1 X98.46 Y145.09 E7.90844
G1 X97.474 Y143.111 E8.01875
G1 X97.252 Y141.587 E8.09558
G1 X97.2 Y100.211 E10.15984
G1 X97.622 Y98.154 E10.2646
G1 X98.617 Y96.383 E10.36595
G1 X99.39 Y95.385 E10.42893
G0 F3600 X99.678 Y95.666
G1 F1800 X100.96 Y94.632 E10.5111
G1 X102.842 Y93.694 E10.61601
G1 X104.304 Y93.481 E10.68972
G1 X145.581 Y93.433 E12.74904
G1 X147.538 Y93.835 E12.84871
G1 X149.205 Y94.766 E12.94397
G1 X150.167 Y95.511 E13.00467
G1 X151.201 Y96.793 E13.08684
G1 X152.139 Y98.675 E13.19175
G1 X152.352 Y100.137 E13.26546
G1 X152.4 Y141.414 E15.32478
G1 X151.998 Y143.371 E15.42446
G1 X151.067 Y145.038 E15.51971
G1 X150.322 Y146 E15.58042
G1 X149.04 Y147.034 E15.66259
G1 X147.158 Y147.972 E15.7675
G1 X145.696 Y148.185 E15.84121
G1 X104.419 Y148.233 E17.90053
G1 X102.462 Y147.831 E18.0002
G1 X100.795 Y146.9 E18.09546
G1 X99.833 Y146.155 E18.15616
G1 X98.799 Y144.873 E18.23833
G1 X97.861 Y142.991 E18.34324
G1 X97.648 Y141.529 E18.41695
G1 X97.6 Y100.252 E20.47627
G1 X98.002 Y98.295 E20.57594
G1 X98.933 Y96.628 E20.6712
G1 X99.678 Y95.666 E20.7319
G0 F3600 X99.966 Y95.947
G1 F1800 X101.177 Y94.971 E20.8095
G1 X102.962 Y94.081 E20.90901
G1 X104.362 Y93.877 E20.97959
G1 X145.539 Y93.833 E23.03392
G1 X147.397 Y94.215 E23.12856
G1 X148.96 Y95.082 E23.21773
G1 X149.886 Y95.799 E23.27616
G1 X150.862 Y97.01 E23.35376
G1 X151.752 Y98.795 E23.45327
G1 X151.956 Y100.195 E23.52385
G1 X152 Y141.372 E25.57818
G1 X151.618 Y143.23 E25.67281
G1 X150.751 Y144.793 E25.76199
G1 X150.034 Y145.719 E25.82041
G1 X148.823 Y146.695 E25.89801
G1 X147.038 Y147.585 E25.99752
G1 X145.638 Y147.789 E26.0681
G1 X104.461 Y147.833 E28.12244
G1 X102.603 Y147.451 E28.21707
G1 X101.04 Y146.584 E28.30624
G1 X100.114 Y145.867 E28.36467
G1 X99.138 Y144.656 E28.44227
G1 X98.248 Y142.871 E28.54178
G1 X98.044 Y141.471 E28.61236
G1 X98 Y100.294 E30.66669
G1 X98.382 Y98.436 E30.76132
G1 X99.249 Y96.873 E30.8505
G1 X99.966 Y95.947 E30.90893
G0 F3600 X100.251 Y96.231
G1 F1800 X101.397 Y95.308 E30.98234
G1 X103.082 Y94.468 E31.07627
G1 X104.42 Y94.273 E31.14373
G1 X145.497 Y94.233 E33.19307
G1 X147.257 Y94.595 E33.28271
G1 X148.766 Y95.432 E33.3688
G1 X149.602 Y96.084 E33.4217
G1 X150.525 Y97.23 E33.49511
G1 X151.365 Y98.915 E33.58904
G1 X151.56 Y100.253 E33.6565
G1 X151.6 Y141.33 E35.70584
G1 X151.238 Y143.09 E35.79548
G1 X150.401 Y144.599 E35.88157
G1 X149.749 Y145.435 E35.93447
G1 X148.603 Y146.358 E36.00788
G1 X146.918 Y147.198 E36.10181
G1 X145.58 Y147.393 E36.16927
G1 X104.503 Y147.433 E38.21861
G1 X102.743 Y147.071 E38.30826
G1 X101.234 Y146.234 E38.39434
G1 X100.398 Y145.582 E38.44724
G1 X99.475 Y144.436 E38.52065
G1 X98.635 Y142.751 E38.61458
G1 X98.44 Y141.413 E38.68204
G1 X98.4 Y100.336 E40.73138
G1 X98.762 Y98.576 E40.82103
G1 X99.599 Y97.067 E40.90712
G1 X100.251 Y96.231 E40.96001
G0 F3600 X100.535 Y96.516
G1 F1800 X101.617 Y95.645 E41.02931
G1 X103.202 Y94.855 E41.11766
G1 X104.478 Y94.669 E41.18199
G1 X145.455 Y94.633 E43.22635
G1 X147.117 Y94.975 E43.311
G1 X148.572 Y95.782 E43.39401
G1 X149.317 Y96.368 E43.4413
G1 X150.188 Y97.45 E43.51059
G1 X150.978 Y99.035 E43.59895
G1 X151.164 Y100.311 E43.66328
G1 X151.2 Y141.288 E45.70763
G1 X150.858 Y142.95 E45.79229
G1 X150.051 Y144.405 E45.8753
G1 X149.465 Y145.15 E45.92258
G1 X148.383 Y146.021 E45.99188
G1 X146.798 Y146.811 E46.08024
G1 X145.522 Y146.997 E46.14457
G1 X104.545 Y147.033 E48.18892
G1 X102.883 Y146.691 E48.27358
G1 X101.428 Y145.884 E48.35658
G1 X100.683 Y145.298 E48.40387
G1 X99.812 Y144.216 E48.47317
G1 X99.022 Y142.631 E48.56152
G1 X98.836 Y141.355 E48.62586
G1 X98.8 Y100.378 E50.67021
G1 X99.142 Y98.716 E50.75486
G1 X99.949 Y97.261 E50.83787
G1 X100.535 Y96.516 E50.88516
G0 F3600 X100.82 Y96.801
G1 F1800 X101.835 Y95.984 E50.95017
G1 X103.323 Y95.242 E51.03312
G1 X104.536 Y95.065 E51.09428
G1 X145.413 Y95.033 E53.13364
G1 X146.977 Y95.355 E53.2133
G1 X148.378 Y96.132 E53.29323
G1 X149.032 Y96.653 E53.33495
G1 X149.849 Y97.668 E53.39995
G1 X150.591 Y99.156 E53.48291
G1 X150.768 Y100.369 E53.54406
G1 X150.8 Y141.246 E55.58343
G1 X150.478 Y142.81 E55.66309
G1 X149.701 Y144.211 E55.74302
G1 X149.18 Y144.865 E55.78473
G1 X148.165 Y145.682 E55.84974
G1 X146.677 Y146.424 E55.93269
G1 X145.464 Y146.601 E55.99385
G1 X104.587 Y146.633 E58.03321
G1 X103.023 Y146.311 E58.11288
G1 X101.622 Y145.534 E58.1928
G1 X100.968 Y145.013 E58.23452
G1 X100.151 Y143.998 E58.29952
G1 X99.409 Y142.51 E58.38248
G1 X99.232 Y141.297 E58.44364
G1 X99.2 Y100.42 E60.483
G1 X99.522 Y98.856 E60.56266
G1 X100.299 Y97.455 E60.64259
G1 X100.82 Y96.801 E60.68431
G0 F3600 X101.104 Y97.087
G1 F1800 X102.055 Y96.321 E60.74523
G1 X103.443 Y95.629 E60.82261
G1 X104.594 Y95.461 E60.88064
G1 X145.371 Y95.433 E62.91501
G1 X146.838 Y95.735 E62.98973
G1 X148.129 Y96.445 E63.06324
G1 X148.746 Y96.937 E63.10261
G1 X149.512 Y97.888 E63.16353
G1 X150.204 Y99.276 E63.24091
G1 X150.372 Y100.427 E63.29894
G1 X150.4 Y141.204 E65.33332
G1 X150.098 Y142.671 E65.40804
G1 X149.388 Y143.962 E65.48155
G1 X148.896 Y144.579 E65.52092
G1 X147.945 Y145.345 E65.58184
G1 X146.557 Y146.037 E65.65922
G1 X145.406 Y146.205 E65.71725
G1 X104.629 Y146.233 E67.75162
G1 X103.162 Y145.931 E67.82634
G1 X101.871 Y145.221 E67.89985
G1 X101.254 Y144.729 E67.93922
G1 X100.488 Y143.778 E68.00014
G1 X99.796 Y142.39 E68.07752
G1 X99.628 Y141.239 E68.13555
G1 X99.6 Y100.462 E70.16993
G1 X99.902 Y98.995 E70.24465
G1 X100.612 Y97.704 E70.31816
G1 X101.104 Y97.087 E70.35753
G0 F3600 X101.39 Y97.37
G1 F1800 X102.271 Y96.66 E70.41398
G1 X103.563 Y96.016 E70.486
G1 X104.652 Y95.857 E70.5409
G1 X145.329 Y95.833 E72.57029
G1 X146.7 Y96.115 E72.64012
G1 X147.88 Y96.758 E72.70716
G1 X148.463 Y97.223 E72.74437
G1 X149.173 Y98.104 E72.80082
G1 X149.817 Y99.396 E72.87284
G1 X149.976 Y100.485 E72.92775
G1 X150 Y141.162 E74.95713
G1 X149.718 Y142.533 E75.02696
G1 X149.075 Y143.713 E75.09401
G1 X148.61 Y144.296 E75.13121
G1 X147.729 Y145.006 E75.18766
G1 X146.437 Y145.65 E75.25968
G1 X145.348 Y145.809 E75.31459
G1 X104.671 Y145.833 E77.34397
G1 X103.3 Y145.551 E77.4138
G1 X102.12 Y144.908 E77.48085
G1 X101.537 Y144.443 E77.51805
G1 X100.827 Y143.562 E77.5745
G1 X100.183 Y142.27 E77.64652
G1 X100.024 Y141.181 E77.70143
G1 X100 Y100.504 E79.73081
G1 X100.282 Y99.133 E79.80065
G1 X100.925 Y97.953 E79.86769
G1 X101.39 Y97.37 E79.90489
G0 F3600 X101.674 Y97.655
G1 F1800 X102.491 Y96.997 E79.95723
G1 X103.683 Y96.403 E80.02367
G1 X104.71 Y96.253 E80.07545
G1 X145.287 Y96.233 E82.09985
G1 X146.562 Y96.495 E82.16479
G1 X147.631 Y97.071 E82.22537
G1 X148.178 Y97.507 E82.26027
G1 X148.836 Y98.324 E82.3126
G1 X149.43 Y99.516 E82.37905
G1 X149.58 Y100.543 E82.43083
G1 X149.6 Y141.12 E84.45522
G1 X149.338 Y142.395 E84.52016
G1 X148.762 Y143.464 E84.58075
G1 X148.326 Y144.011 E84.61564
G1 X147.509 Y144.669 E84.66798
G1 X146.317 Y145.263 E84.73442
G1 X145.29 Y145.413 E84.7862
G1 X104.713 Y145.433 E86.8106
G1 X103.438 Y145.171 E86.87554
G1 X102.369 Y144.595 E86.93612
G1 X101.822 Y144.159 E86.97102
G1 X101.164 Y143.342 E87.02336
G1 X100.57 Y142.15 E87.0898
G1 X100.42 Y141.123 E87.14158
G1 X100.4 Y100.546 E89.16598
G1 X100.662 Y99.271 E89.23091
G1 X101.238 Y98.202 E89.2915
G1 X101.674 Y97.655 E89.32639
G0 F3600 X101.956 Y97.942
G1 F1800 X102.711 Y97.334 E89.37476
G1 X103.803 Y96.79 E89.43562
G1 X104.768 Y96.649 E89.48428
G1 X145.246 Y96.633 E91.50373
G1 X146.424 Y96.875 E91.56373
G1 X147.441 Y97.423 E91.62137
G1 X147.891 Y97.789 E91.65031
G1 X148.499 Y98.544 E91.69867
G1 X149.043 Y99.636 E91.75953
G1 X149.184 Y100.601 E91.80819
G1 X149.2 Y141.079 E93.82765
G1 X148.958 Y142.257 E93.88764
G1 X148.41 Y143.274 E93.94528
G1 X148.044 Y143.724 E93.97422
G1 X147.289 Y144.332 E94.02258
G1 X146.197 Y144.876 E94.08345
G1 X145.232 Y145.017 E94.1321
G1 X104.754 Y145.033 E96.15156
G1 X103.576 Y144.791 E96.21156
G1 X102.559 Y144.243 E96.26919
G1 X102.109 Y143.877 E96.29813
G1 X101.501 Y143.122 E96.34649
G1 X100.957 Y142.03 E96.40736
G1 X100.816 Y141.065 E96.45601
G1 X100.8 Y100.587 E98.47547
G1 X101.042 Y99.409 E98.53547
G1 X101.59 Y98.392 E98.5931
G1 X101.956 Y97.942 E98.62204
G0 F3600 X102.207 Y98.254
G1 F1800 X102.931 Y97.671 E98.66842
G1 X103.923 Y97.177 E98.7237
G1 X104.826 Y97.045 E98.76923
G1 X145.205 Y97.033 E100.78375
G1 X146.286 Y97.255 E100.83881
G1 X147.194 Y97.738 E100.89012
G1 X147.579 Y98.04 E100.91453
G1 X148.162 Y98.764 E100.96091
G1 X148.656 Y99.756 E101.01619
G1 X148.788 Y100.659 E101.06172
G1 X148.8 Y141.038 E103.07624
G1 X148.578 Y142.119 E103.1313
G1 X148.095 Y143.027 E103.18261
G1 X147.793 Y143.412 E103.20702
G1 X147.069 Y143.995 E103.2534
G1 X146.077 Y144.489 E103.30868
G1 X145.174 Y144.621 E103.35421
G1 X104.795 Y144.633 E105.36873
G1 X103.714 Y144.411 E105.42379
G1 X102.806 Y143.928 E105.4751
G1 X102.421 Y143.626 E105.49951
G1 X101.838 Y142.902 E105.54588
G1 X101.344 Y141.91 E105.60117
G1 X101.212 Y141.007 E105.6467
G1 X101.2 Y100.628 E107.66122
G1 X101.422 Y99.547 E107.71628
G1 X101.905 Y98.639 E107.76759
G1 X102.207 Y98.254 E107.792
G0 F3600 X102.458 Y98.566
G1 F1800 X103.151 Y98.008 E107.83639
G1 X104.043 Y97.564 E107.8861
G1 X104.884 Y97.441 E107.9285
G1 X145.164 Y97.433 E109.93808
G1 X146.15 Y97.635 E109.98829
G1 X146.955 Y98.059 E110.03368
G1 X147.267 Y98.291 E110.05308
G1 X147.825 Y98.984 E110.09747
G1 X148.269 Y99.876 E110.14718
G1 X148.392 Y100.717 E110.18958
G1 X148.4 Y140.997 E112.19916
G1 X148.198 Y141.983 E112.24938
G1 X147.774 Y142.788 E112.29477
G1 X147.542 Y143.1 E112.31416
G1 X146.849 Y143.658 E112.35855
G1 X145.957 Y144.102 E112.40826
G1 X145.116 Y144.225 E112.45067
G1 X104.836 Y144.233 E114.46025
G1 X103.85 Y144.031 E114.51046
G1 X103.045 Y143.607 E114.55585
G1 X102.733 Y143.375 E114.57525
G1 X102.175 Y142.682 E114.61964
G1 X101.731 Y141.79 E114.66935
G1 X101.608 Y140.949 E114.71175
G1 X101.6 Y100.669 E116.72133
G1 X101.802 Y99.683 E116.77154
G1 X102.226 Y98.878 E116.81693
G1 X102.458 Y98.566 E116.83633
G0 F3600 X102.749 Y98.845
G1 F1800 X103.367 Y98.347 E116.87593
G1 X104.163 Y97.951 E116.92028
G1 X104.942 Y97.837 E116.95956
G1 X145.123 Y97.833 E118.9642
G1 X146.013 Y98.015 E119.00952
G1 X146.768 Y98.413 E119.0521
G1 X146.988 Y98.582 E119.06594
G1 X147.486 Y99.2 E119.10554
G1 X147.882 Y99.996 E119.14989
G1 X147.996 Y100.775 E119.18917
G1 X148 Y140.956 E121.19381
G1 X147.818 Y141.846 E121.23913
G1 X147.42 Y142.601 E121.28171
G1 X147.251 Y142.821 E121.29555
G1 X146.633 Y143.319 E121.33515
G1 X145.837 Y143.715 E121.37951
G1 X145.058 Y143.829 E121.41878
G1 X104.877 Y143.833 E123.42342
G1 X103.987 Y143.651 E123.46874
G1 X103.232 Y143.253 E123.51132
G1 X103.012 Y143.084 E123.52516
G1 X102.514 Y142.466 E123.56476
G1 X102.118 Y141.67 E123.60912
G1 X102.004 Y140.891 E123.64839
G1 X102 Y100.71 E125.65303
G1 X102.182 Y99.82 E125.69835
G1 X102.58 Y99.065 E125.74093
G1 X102.749 Y98.845 E125.75477
G0 F3600 X103.037 Y99.126
G1 F1800 X103.583 Y98.686 E125.78976
G1 X104.283 Y98.338 E125.82876
G1 X105 Y98.233 E125.86491
G1 X145.082 Y98.233 E127.86461
G1 X145.878 Y98.396 E127.90515
G1 X146.582 Y98.767 E127.94485
G1 X146.707 Y98.87 E127.95293
G1 X147.147 Y99.416 E127.98791
G1 X147.495 Y100.116 E128.02692
G1 X147.6 Y100.833 E128.06307
G1 X147.6 Y140.915 E130.06277
G1 X147.437 Y141.711 E130.1033
G1 X147.066 Y142.415 E130.14301
G1 X146.963 Y142.54 E130.15109
G1 X146.417 Y142.98 E130.18607
G1 X145.717 Y143.328 E130.22507
G1 X145 Y143.433 E130.26122
G1 X104.918 Y143.433 E132.26092
G1 X104.122 Y143.27 E132.30146
G1 X103.418 Y142.899 E132.34116
G1 X103.293 Y142.796 E132.34924
G1 X102.853 Y142.25 E132.38423
G1 X102.505 Y141.55 E132.42323
G1 X102.4 Y140.833 E132.45938
G1 X102.4 Y100.751 E134.45908
G1 X102.563 Y99.955 E134.49962
G1 X102.934 Y99.251 E134.53932
G1 X103.037 Y99.126 E134.5474
G0 F3600 X103.288 Y99.437
G1 F1800 X103.799 Y99.025 E134.58015
G1 X104.405 Y98.724 E134.6139
G1 X105 Y98.633 E134.64393
G1 X145.041 Y98.633 E136.64159
G1 X145.743 Y98.777 E136.67734
G1 X146.396 Y99.121 E136.71416
G1 X146.808 Y99.632 E136.74691
G1 X147.109 Y100.238 E136.78067
G1 X147.2 Y100.833 E136.8107
G1 X147.2 Y140.874 E138.80835
G1 X147.056 Y141.576 E138.8441
G1 X146.712 Y142.229 E138.88092
G1 X146.201 Y142.641 E138.91367
G1 X145.595 Y142.942 E138.94743
G1 X145 Y143.033 E138.97746
G1 X104.959 Y143.033 E140.97511
G1 X104.257 Y142.889 E141.01087
G1 X103.604 Y142.545 E141.04769
G1 X103.192 Y142.034 E141.08044
G1 X102.891 Y141.428 E141.11419
G1 X102.8 Y140.833 E141.14422
G1 X102.8 Y100.792 E143.14188
G1 X102.944 Y100.09 E143.17763
G1 X103.288 Y99.437 E143.21445
G0 F3600 X103.605 Y99.695
G1 F1800 X103.977 Y99.383 E143.23867
G1 X104.526 Y99.11 E143.26926
G1 X105 Y99.033 E143.29322
G1 X145 Y99.033 E145.28883
G1 X145.606 Y99.157 E145.31969
G1 X146.138 Y99.438 E145.34971
G1 X146.45 Y99.81 E145.37393
G1 X146.723 Y100.359 E145.40452
G1 X146.8 Y100.833 E145.42848
G1 X146.8 Y140.833 E147.42408
G1 X146.676 Y141.439 E147.45494
G1 X146.395 Y141.971 E147.48496
G1 X146.023 Y142.283 E147.50918
G1 X145.474 Y142.556 E147.53977
G1 X145 Y142.633 E147.56373
G1 X105 Y142.633 E149.55934
G1 X104.394 Y142.509 E149.5902
G1 X103.862 Y142.228 E149.62021
G1 X103.55 Y141.856 E149.64444
G1 X103.277 Y141.307 E149.67503
G1 X103.2 Y140.833 E149.69898
G1 X103.2 Y100.833 E151.69459
G1 X103.324 Y100.227 E151.72545
G1 X103.605 Y99.695 E151.75547
G0 F3600 X103.923 Y99.95
G1 F1800 X104.155 Y99.741 E151.77105
G1 X104.649 Y99.495 E151.79858
G1 X105 Y99.433 E151.81636
G1 X145 Y99.433 E153.81197
G1 X145.419 Y99.511 E153.83323
G1 X145.883 Y99.756 E153.85941
G1 X146.092 Y99.988 E153.87499
G1 X146.338 Y100.482 E153.90252
G1 X146.4 Y100.833 E153.92031
G1 X146.4 Y140.833 E155.91591
G1 X146.322 Y141.252 E155.93718
G1 X146.077 Y141.716 E155.96335
G1 X145.845 Y141.925 E155.97893
G1 X145.351 Y142.171 E156.00647
G1 X145 Y142.233 E156.02425
G1 X105 Y142.233 E158.01986
G1 X104.581 Y142.155 E158.04112
G1 X104.117 Y141.91 E158.0673
G1 X103.908 Y141.678 E158.08288
G1 X103.662 Y141.184 E158.11041
G1 X103.6 Y140.833 E158.12819
G1 X103.6 Y100.833 E160.1238
G1 X103.678 Y100.414 E160.14506
G1 X103.923 Y99.95 E160.17124
G0 F3600 X104.207 Y100.232
G1 F1800 X104.345 Y100.093 E160.18101
G1 X104.727 Y99.887 E160.20266
G1 X105 Y99.833 E160.21655
G1 X145 Y99.833 E162.21216
G1 X145.338 Y99.903 E162.22938
G1 X145.601 Y100.04 E162.24417
G1 X145.74 Y100.178 E162.25394
G1 X145.946 Y100.56 E162.2756
G1 X146 Y100.833 E162.28948
G1 X146 Y140.833 E164.28509
G1 X145.93 Y141.171 E164.30231
G1 X145.793 Y141.434 E164.3171
G1 X145.655 Y141.573 E164.32688
G1 X145.273 Y141.779 E164.34853
G1 X145 Y141.833 E164.36241
G1 X105 Y141.833 E166.35802
G1 X104.662 Y141.763 E166.37524
